public/img/prop-icon4.svg

<svg width="21" height="29" viewBox="0 0 21 29" fill="none" xmlns="http://www.w3.org/2000/svg">
<path d="M5.20569 4.70114C5.75794 4.70114 6.28758 4.99462 6.67808 5.51703C7.06858 6.03943 7.28796 6.74797 7.28796 7.48676C7.28796 8.22555 7.06858 8.93409 6.67808 9.45649C6.28758 9.9789 5.75794 10.2724 5.20569 10.2724C4.05003 10.2724 3.12341 9.03278 3.12341 7.48676C3.12341 5.94074 4.06044 4.70114 5.20569 4.70114ZM18.7405 15.8436V4.46436C18.7405 2.29157 17.4182 0.522705 15.7941 0.522705C15.0132 0.522705 14.2636 0.940548 13.7118 1.67874L12.4104 3.41975C12.2438 3.35011 12.0668 3.30833 11.8794 3.30833C11.4525 3.30833 11.0777 3.47546 10.755 3.75403L13.6285 7.59818C13.8367 7.16641 13.9617 6.65107 13.9617 6.09395C13.9617 5.84324 13.9304 5.62039 13.8888 5.39754L15.1902 3.6426C15.3112 3.4826 15.465 3.37409 15.632 3.33075C15.799 3.2874 15.9719 3.31116 16.1289 3.39903C16.2859 3.4869 16.4199 3.63494 16.5141 3.82452C16.6083 4.0141 16.6584 4.23673 16.6582 4.46436V15.8436H9.52641C9.21407 15.5511 8.93296 15.2169 8.67268 14.8408L7.21508 12.6819C7.01727 12.3616 6.76739 12.1527 6.4967 11.9855C6.17395 11.7766 5.81996 11.6652 5.45556 11.6652C4.16455 11.6652 3.12341 13.058 3.12341 14.799V15.8436H0V24.2005C0 25.7326 0.937024 26.9861 2.08228 26.9861C2.08228 27.7522 2.55079 28.3789 3.12341 28.3789H17.6993C18.272 28.3789 18.7405 27.7522 18.7405 26.9861C19.8857 26.9861 20.8228 25.7326 20.8228 24.2005V15.8436H18.7405ZM18.7405 24.2005H2.08228V18.6292H18.7405V24.2005Z" fill="black"/>
</svg>

<svg width="21" height="29" fill="none" xmlns="http://www.w3.org/2000/svg"><path d="M5.206 4.701c.552 0 1.082.294 1.472.816.39.522.61 1.231.61 1.97 0 .739-.22 1.447-.61 1.97-.39.522-.92.815-1.472.815-1.156 0-2.083-1.24-2.083-2.785 0-1.546.937-2.786 2.083-2.786zM18.74 15.844V4.464c0-2.172-1.322-3.941-2.946-3.941-.78 0-1.53.418-2.082 1.156l-1.302 1.74a1.368 1.368 0 00-.53-.11c-.428 0-.802.166-1.125.445l2.873 3.844a3.473 3.473 0 00.26-2.2l1.302-1.755a.822.822 0 01.442-.312.663.663 0 01.497.068.976.976 0 01.385.426c.094.19.144.412.144.64v11.379H9.526a6.177 6.177 0 01-.853-1.003l-1.458-2.16a2.104 2.104 0 00-.718-.695 1.906 1.906 0 00-1.041-.32c-1.291 0-2.333 1.392-2.333 3.133v1.045H0V24.2c0 1.532.937 2.785 2.082 2.785 0 .766.469 1.393 1.041 1.393H17.7c.573 0 1.041-.627 1.041-1.393 1.146 0 2.083-1.253 2.083-2.785v-8.357H18.74zm0 8.357H2.082v-5.572h16.659v5.572z" fill="#000"/></svg>
